X:19291
T:Ónde vas por agua
R:Danza Prima
C:Tradicional
S:Música Tradicional Asturiana, (C) Tello & Tito. Asturies, 2001.
S:http://pagina.de/MusTradAst <telloytito@asturies.org>
A:Asturies
Z:Les cuarenta principales
M:2/4
L:1/8
Q:1/4=74
K:Cm
|G2 GA|G2 FA|G3 A|G2 FA|G4|
|: E2 EG|F2 ED|C3 E|D2 =B,D|C4 :|



Xiraldilla
C:Tradicional
S:Música Tradicional Asturiana, (C) Tello & Tito. Asturies, 2001.
S:http://pagina.de/MusTradAst <telloytito@asturies.org>
A:Asturies
Z:Asturias, canciones
M:2/4
L:1/8
Q:1/4=100
K:Em
|B2 Bc|B2 Ac|B3 c|B2 Ac|B2 z2|
G2 GB|A2 GF|E3 G|F2 ^DF|E2 z2|
G2 GB|A2 GF|E3 G|F2 ^DF|E2 z2||


